symbolic/16x16/panel/system-restart-panel.svg

<svg xmlns="http://www.w3.org/2000/svg" width="16" height="16"><defs><style id="current-color-scheme" type="text/css"></style></defs><path style="fill:currentColor;color:#323a41" d="M8 2a1 1 0 0 0-1 1 1 1 0 0 0 1 1 4 4 0 0 1 4 4h-2l3 4 3-4h-2a6 6 0 0 0-6-6zM3 4 0 8h2a6 6 0 0 0 6 6 1 1 0 0 0 1-1 1 1 0 0 0-1-1 4 4 0 0 1-4-4h2z"/></svg>

<svg xmlns="http://www.w3.org/2000/svg" width="16" height="16" version="1.1">
 <defs>
  <style id="current-color-scheme" type="text/css">
   .ColorScheme-Text { color:#323a41; } .ColorScheme-Highlight { color:#4285f4; } .ColorScheme-NeutralText { color:#ff9800; } .ColorScheme-PositiveText { color:#4caf50; } .ColorScheme-NegativeText { color:#f44336; }
  </style>
 </defs>
 <path style="fill:currentColor" class="ColorScheme-Text" d="M 8,2 A 1,1 0 0 0 7,3 1,1 0 0 0 8,4 4,4 0 0 1 12,8 H 10 L 13,12 16,8 H 14 A 6,6 0 0 0 8,2 Z M 3,4 0,8 H 2 A 6,6 0 0 0 8,14 1,1 0 0 0 9,13 1,1 0 0 0 8,12 4,4 0 0 1 4,8 H 6 Z"/>
</svg>
